X:5479
T:Fraher's
Z: id:dc-jig-34
M:6/8
L:1/8
K:D Mixolydian
FG|A3 GED|D3 GED|A3 GEA|DED DEG|!
A3 GEA|D3 GED|AcA GEA|DED D:|!
EG|AcA cdA|cdA AGE|GAB cdc|BGE EDE|!
Ad^c def|dcA AGE|AcA GEA|DED D:|!


